icon/pk/editor.svg

<svg viewBox="0 0 48 48" fill="none" xmlns="http://www.w3.org/2000/svg" height="1em" width="1em">
  <path d="M40 33V42C40 43.1046 39.1046 44 38 44H31.5" stroke="black" stroke-width="4" stroke-linecap="round" stroke-linejoin="round"/>
  <path d="M40 16V6C40 4.89543 39.1046 4 38 4H10C8.89543 4 8 4.89543 8 6V42C8 43.1046 8.89543 44 10 44H16" stroke="black" stroke-width="4" stroke-linecap="round" stroke-linejoin="round"/>
  <path d="M16 16H30" stroke="black" stroke-width="4" stroke-linecap="round"/>
  <path d="M23 44L40 23" stroke="black" stroke-width="4" stroke-linecap="round"/>
  <path d="M16 24H24" stroke="black" stroke-width="4" stroke-linecap="round"/>
</svg>

<svg width="48" height="48" fill="none" xmlns="http://www.w3.org/2000/svg"><path d="M40 33v9a2 2 0 0 1-2 2h-6.5M40 16V6a2 2 0 0 0-2-2H10a2 2 0 0 0-2 2v36a2 2 0 0 0 2 2h6" stroke="#000" stroke-width="4" stroke-linecap="round" stroke-linejoin="round"/><path d="M16 16h14M23 44l17-21M16 24h8" stroke="#000" stroke-width="4" stroke-linecap="round"/></svg>
